src/assets/icons/question.svg

<svg width="28" height="28" xmlns="http://www.w3.org/2000/svg"><path d="M14 0C6.269 0 0 6.269 0 14c0 7.732 6.269 14 14 14 7.732 0 14-6.268 14-14 0-7.731-6.268-14-14-14zm1.752 16.688v-.648c0-1.224 1.512-1.824 2.64-2.952.744-.744 1.368-1.68 1.368-3.144C19.76 7.52 17.96 5 14.096 5 10.376 5 8.528 7.352 8 10.352l3.456.576c.168-1.536.912-3.168 2.64-3.168 1.296 0 2.112.936 2.112 2.064 0 1.176-.84 1.776-1.536 2.28-1.2.864-2.424 2.016-2.424 3.768v.816h3.504zm-3.768 4.624c0 1.152.84 2.064 2.064 2.064 1.224 0 2.064-.912 2.064-2.064 0-1.224-.84-2.04-2.064-2.04-1.224 0-2.064.816-2.064 2.04z" fill-rule="evenodd"/></svg>

<?xml version="1.0" encoding="UTF-8" standalone="no"?>
<svg width="28px" height="28px" viewBox="0 0 28 28" version="1.1" xmlns="http://www.w3.org/2000/svg" xmlns:xlink="http://www.w3.org/1999/xlink" xmlns:sketch="http://www.bohemiancoding.com/sketch/ns">
    <!-- Generator: Sketch 3.3.3 (12081) - http://www.bohemiancoding.com/sketch -->
    <title>Question icon</title>
    <g id="Page-1" stroke-width="1" fill-rule="evenodd" sketch:type="MSPage">
        <path d="M14,0 C6.2685,0 0,6.2685 0,14 C0,21.7315 6.2685,28 14,28 C21.7315,28 28,21.7315 28,14 C28,6.2685 21.7315,0 14,0 Z M15.752,16.688 L15.752,16.04 C15.752,14.816 17.264,14.216 18.392,13.088 C19.136,12.344 19.76,11.408 19.76,9.944 C19.76,7.52 17.96,5 14.096,5 C10.376,5 8.528,7.352 8,10.352 L11.456,10.928 C11.624,9.392 12.368,7.76 14.096,7.76 C15.392,7.76 16.208,8.696 16.208,9.824 C16.208,11 15.368,11.6 14.672,12.104 C13.472,12.968 12.248,14.12 12.248,15.872 L12.248,16.688 L15.752,16.688 Z M11.984,21.312 C11.984,22.464 12.824,23.376 14.048,23.376 C15.272,23.376 16.112,22.464 16.112,21.312 C16.112,20.088 15.272,19.272 14.048,19.272 C12.824,19.272 11.984,20.088 11.984,21.312 L11.984,21.312 Z" id="info-circle-copy-2" sketch:type="MSShapeGroup"></path>
    </g>
</svg>
